!!!OTL: Dank - und Freudenlied
!!!ARE: Europa, Mitteleuropa, Deutschland
!!!SCT: A0623A
!!!YEM: Copyright 1995, estate of Helmut Schaffrath.
**kern
*ICvox
*Ivox
!! Mixed meters:  4/1; 6/1
*M6/1
*k[f#]
*G:
{2g
=1
1g
1d
1g
1cc
=2
1b
1a
1g
2r}
{2g
=3
1a
1cc
1b
1a
=4
0e
0f#
1g
2r}
{2g
=5
*M4/1
1g
1d
1g
1cc
=6
1b
1a
1g
2r}
{2g
=7
1a
1cc
1b
1a
=8
*M6/1
0e
0f#
1g
2r}
{2g
=9
*M4/1
1cc
1b
1cc
1dd
=10
1dd
1cc
1dd
2r}
{2ff#
=11
1ee
1cc
1.dd
2cc
=12
1b
1a
1g
2r}
{2b
=13
1a
1d
1g
1a
=14
0b
0a
1.g}
==
!!!AGN: Romanze, Ballade, Lied, religioeses Lied
!! Luth. Gsgb 1524
!!!ONB: ESAC (Essen Associative Code) Database: ALTDEU
!!!AMT: irregular
!!!AIN: vox
!!!EED: Helmut Schaffrath
!!!EEV: 1.0
*-
